X: 10102
T: OUR NATIVE HOME
C: D. KIPPEN
Q: "Quick March"
R: march
B: K\"ohler's Violin Repository, v.1, 1885 p.10 #2
F: http://www.archive.org/details/klersviolinrepos01edin
N: The Lines and Two Does above in (._._) March and Quick March indicate two up or down Bows.
Z: 2011 John Chambers <jc:trillian.mit.edu>
M: 2/4
L: 1/8
K: D
|:\
vd4- | d>vA F2 | d2 (3ddd | (.d>.B) G2 |\
g2 (f>g) | e2 a2 | (.f>.e)(.d>.c) | e>(AB>c) |
d4- | d>vA F2 | d2 ((3cde) | (.d>.f) a2 |\
(.f>.d) a2 | (.g>.f)(.e>.d) | (.c>.A)(.A>.c) | d4 :|
|:\
!p!ve3 d | (.c>.B)(.A>.g) | f2- (3fge | (d3 f) |\
(g>fg)>vf | e2- (3efd | (.c>.A)(.B>.c) |
A3 !f!A | "^cres."d3 e | (.f>.e)(.d>.A) | e3 f |\
(.g>.f)(.e>.A) !f!| (.a>.f) ((3def) !ff!| ("^>".f>.d)("^>".e>.c) | d4 :|

%%sep 2 1 500

